!!!SOCIAL_FUNCTION:	miscellaneous songs
!!!PDT:	1956
!!!OTL: No_240_Song_of_Friendship_(a).krn
!!!LANG: Non-Tone
!!!LING_GROUP: Muskogean
!!!REG: Florida
**kern
*staff1
=1-
*clefF4
*k[]
*M2/4
8.r
16G\
8.G\L
16F\Jk
=2||
*M3/4
2G\
12G\L
12E\
12C\J
=3||
*M2/4
8C/L
8C/J
8.D/L
16C/Jk
=4
4..C/
16AA/
=5
4C/
4r
=6
4G\
8G\L
8E\J
=7||
*M7/8
8D/L
8C/
8AA/J
8r
8C/L
16D/L
16D/J
8C/J
=8||
*M2/4
4..C/
16AA/
=9
4C/
4r
==
*-
